static/assets/images/networks/bnb-chain-mono.svg

<svg width="218" height="256" viewBox="0 0 218 256" fill="none" xmlns="http://www.w3.org/2000/svg">
<path d="M24.4616 128.143L24.5964 177.485L66.5991 202.156V231.043L0.0149854 192.063V113.715L24.4616 128.143ZM24.4616 78.8016V107.554L0 93.1107V64.358L24.4616 49.9143L49.043 64.358L24.4616 78.8016ZM84.1401 64.358L108.602 49.9143L133.183 64.358L108.602 78.8016L84.1401 64.358Z" fill="black"/>
<path d="M42.6337 167.429V138.5L67.0254 152.965V181.759L42.6337 167.429ZM84.5163 212.74L108.908 227.205L133.419 212.74V241.535L108.908 256L84.5163 241.535V212.74ZM168.401 64.3791L192.793 49.9143L217.304 64.3791V93.1739L192.793 107.639V78.8439L168.401 64.3791ZM192.793 177.672L192.927 128.258L217.319 113.793V192.256L150.925 231.293V202.364L192.793 177.672Z" fill="black"/>
<path d="M175.062 167.102L150.916 181.507V152.561L175.062 138.021V167.102Z" fill="black"/>
<path d="M174.928 88.577L175.062 117.509L133.178 142.217V191.755L108.855 206.086L84.5324 191.755V142.217L42.6486 117.509V88.577L67.0759 74.1112L108.706 98.9397L150.59 74.1112L175.032 88.577H174.928ZM42.6337 39.1746L108.721 0L174.928 39.1746L150.605 53.6404L108.721 28.8119L66.9567 53.6404L42.6337 39.1746Z" fill="black"/>
</svg>

<svg xmlns="http://www.w3.org/2000/svg" fill="none" viewBox="0 0 218 256"><path fill="#000" d="m24.462 128.143.134 49.342L66.6 202.156v28.887L.015 192.063v-78.348zm0-49.341v28.752L0 93.111V64.358l24.462-14.444 24.581 14.444zM84.14 64.358l24.462-14.444 24.581 14.444-24.581 14.444z"/><path fill="#000" d="M42.634 167.429V138.5l24.391 14.465v28.794zm41.882 45.311 24.392 14.465 24.511-14.465v28.795L108.908 256l-24.392-14.465zm83.885-148.36 24.392-14.466 24.511 14.465v28.795l-24.511 14.465V78.844zm24.392 113.292.134-49.414 24.392-14.465v78.463l-66.394 39.037v-28.929z"/><path fill="#000" d="m175.062 167.102-24.146 14.405v-28.946l24.146-14.54z"/><path fill="#000" d="m174.928 88.577.134 28.932-41.884 24.708v49.538l-24.323 14.331-24.323-14.331v-49.538L42.65 117.509V88.577l24.427-14.466 41.63 24.829L150.59 74.11l24.442 14.466zM42.634 39.175 108.72 0l66.207 39.175-24.323 14.465-41.884-24.828L66.957 53.64z"/></svg>
